images/heart1.svg

<svg width="211" height="52" viewBox="0 0 211 52" fill="none" xmlns="http://www.w3.org/2000/svg">
<path d="M82.3282 3.33927C89.614 3.33927 93.3918 7.78188 93.3918 14.4751C93.3918 21.8951 89.6022 26.2674 82.469 26.2674H79.5593V3.33927H82.3282ZM79.5593 29.5378H82.9148L92.0895 43.7214C94.2717 47.2145 96.0902 49.6175 98.202 51.1413H113.348V48.375C109.782 48.2343 108.174 46.8511 105.042 42.4085L94.4829 27.7092C99.868 26.1853 105.84 22.1061 105.84 14.3931C105.852 5.67194 98.4953 0.0688477 86.5518 0.0688477H61.6441V2.83523C66.5951 3.42132 67.1817 3.92537 67.1817 7.85222V43.358C67.1817 47.2848 66.5951 47.7889 61.6441 48.375V51.1413H85.1674V48.375C80.146 47.7889 79.5593 47.2848 79.5593 43.358V29.5261V29.5378ZM131.041 31.1437H136.426C150.411 31.1437 157.18 25.1069 157.18 15.3543C157.192 6.83241 150.704 0.0688477 136.801 0.0688477H113.137V2.83523C118.088 3.42132 118.675 3.92537 118.675 7.85222V43.358C118.675 47.2848 118.088 47.8006 113.137 48.375V51.1413H139.711V48.3046C133.082 47.9412 131.041 46.9918 131.041 42.9946V31.1437ZM131.041 3.19861H133.516C140.72 3.19861 144.803 8.07493 144.803 15.4246C144.803 22.7742 141.084 27.7209 133.516 27.7209H131.041V3.19861ZM200.156 31.425L175.248 0.0688477H158.717V2.83523C161.263 3.05794 162.284 4.28875 164.325 7.4185V43.358C164.325 47.2145 163.739 47.7889 158.788 48.375V51.1413H175.976V48.375C170.004 47.8592 168.69 47.2145 168.69 43.358V11.8611L200.144 51.2937H204.509V7.85222C204.509 3.9957 205.095 3.4096 210.117 2.83523V0.0688477H192.858V2.83523C198.83 3.33927 200.144 3.9957 200.144 7.85222V31.425H200.156Z" fill="#1F305E"/>
<path d="M24.9336 39.3491L32.5714 12.4589H30.002L25.3325 29.4206C24.7342 31.4719 24.0302 34.0508 23.7487 35.3167C23.6665 35.0823 23.033 32.6676 22.5168 30.8858L17.2959 12.4472H15.2427L10.4559 29.4557C9.93972 31.1906 9.07153 34.0859 8.78995 35.3519C8.63743 34.6017 8.07428 32.7379 7.60499 30.921L2.72434 12.4472H0.0728354L7.27648 39.3491H9.92799L14.5975 23.29C15.2662 20.9925 15.8997 18.6247 16.2165 17.3118C16.4512 18.2261 17.2842 21.2269 17.8825 23.208L22.5168 39.3491H24.9336ZM48.0933 33.5702C47.2251 35.3871 45.3596 37.7666 41.7578 37.7666C38.156 37.7666 35.3871 35.3519 35.3871 30.4521V30.1708H49.7123V29.8543C49.7123 24.2747 46.9435 20.0899 41.4762 20.0899C36.4078 20.0899 32.9703 24.0871 32.9703 29.8191C32.9703 36.231 36.3727 39.8297 41.6757 39.8297C46.4625 39.8297 48.7972 36.864 49.8766 34.7306L48.0933 33.5819V33.5702ZM41.4762 22.0123C45.1132 22.0123 47.1781 25.2124 47.1781 28.2601H35.4575C35.7743 24.4622 38.0269 22.0123 41.4762 22.0123Z" fill="#1F305E"/>
<path d="M24.9336 39.3491L32.5714 12.4589H30.002L25.3325 29.4206C24.7342 31.4719 24.0302 34.0508 23.7487 35.3167C23.6665 35.0823 23.033 32.6676 22.5168 30.8858L17.2959 12.4472H15.2427L10.4559 29.4557C9.93972 31.1906 9.07153 34.0859 8.78995 35.3519C8.63743 34.6017 8.07428 32.7379 7.60499 30.921L2.72434 12.4472H0.0728354L7.27648 39.3491H9.92799L14.5975 23.29C15.2662 20.9925 15.8997 18.6247 16.2165 17.3118C16.4512 18.2261 17.2842 21.2269 17.8825 23.208L22.5168 39.3491H24.9336ZM48.0933 33.5702C47.2251 35.3871 45.3596 37.7666 41.7578 37.7666C38.156 37.7666 35.3871 35.3519 35.3871 30.4521V30.1708H49.7123V29.8543C49.7123 24.2747 46.9435 20.0899 41.4762 20.0899C36.4078 20.0899 32.9703 24.0871 32.9703 29.8191C32.9703 36.231 36.3727 39.8297 41.6757 39.8297C46.4625 39.8297 48.7972 36.864 49.8766 34.7306L48.0933 33.5819V33.5702ZM41.4762 22.0123C45.1132 22.0123 47.1781 25.2124 47.1781 28.2601H35.4575C35.7743 24.4622 38.0269 22.0123 41.4762 22.0123Z" fill="#1F305E"/>
<path d="M50.2168 0.0688477H0.00244141V2.83523H50.2168V0.0688477Z" fill="#1F305E"/>
<path d="M50.2168 48.375H0.00244141V51.1413H50.2168V48.375Z" fill="#1F305E"/>
</svg>

<svg width="211" height="52" fill="none" xmlns="http://www.w3.org/2000/svg"><path d="M82.328 3.34c7.286 0 11.064 4.442 11.064 11.135 0 7.42-3.79 11.792-10.923 11.792h-2.91V3.34h2.77ZM79.56 29.537h3.356l9.174 14.183c2.183 3.494 4.001 5.897 6.113 7.42h15.146v-2.766c-3.566-.14-5.174-1.524-8.306-5.967L94.482 27.71c5.386-1.524 11.358-5.603 11.358-13.316C105.852 5.672 98.495.07 86.552.07H61.644v2.766c4.951.586 5.538 1.09 5.538 5.017v35.506c0 3.927-.587 4.43-5.538 5.017v2.766h23.523v-2.766c-5.021-.586-5.608-1.09-5.608-5.017V29.526v.012Zm51.482 1.606h5.385c13.985 0 20.754-6.037 20.754-15.79C157.192 6.832 150.704.07 136.801.07h-23.664v2.766c4.951.586 5.538 1.09 5.538 5.017v35.506c0 3.927-.587 4.443-5.538 5.017v2.766h26.574v-2.836c-6.629-.364-8.67-1.313-8.67-5.31V31.144Zm0-27.945h2.475c7.204 0 11.287 4.876 11.287 12.226 0 7.35-3.719 12.296-11.287 12.296h-2.475V3.199Zm69.115 28.226L175.248.069h-16.531v2.766c2.546.223 3.567 1.454 5.608 4.583v35.94c0 3.857-.586 4.43-5.537 5.017v2.766h17.188v-2.766c-5.972-.516-7.286-1.16-7.286-5.017V11.861l31.454 39.433h4.365V7.852c0-3.856.586-4.442 5.608-5.017V.07h-17.259v2.766c5.972.504 7.286 1.16 7.286 5.017v23.573h.012ZM24.934 39.35l7.637-26.891h-2.569l-4.67 16.962c-.598 2.05-1.302 4.63-1.583 5.896-.082-.235-.716-2.65-1.232-4.431l-5.221-18.439h-2.053l-4.787 17.009c-.516 1.735-1.384 4.63-1.666 5.896-.153-.75-.716-2.614-1.185-4.431l-4.88-18.474H.072L7.276 39.35h2.652l4.67-16.059a152.928 152.928 0 0 0 1.618-5.978 205.2 205.2 0 0 0 1.666 5.896l4.635 16.141h2.417Zm23.16-5.78c-.869 1.817-2.734 4.197-6.336 4.197-3.602 0-6.37-2.415-6.37-7.315v-.281h14.324v-.317c0-5.58-2.769-9.764-8.236-9.764-5.068 0-8.506 3.997-8.506 9.73 0 6.411 3.403 10.01 8.706 10.01 4.786 0 7.121-2.966 8.2-5.1l-1.783-1.148v-.012Zm-6.618-11.558c3.637 0 5.702 3.2 5.702 6.248h-11.72c.316-3.798 2.569-6.248 6.018-6.248Z" fill="#1F305E"/><path d="m24.934 39.35 7.637-26.891h-2.569l-4.67 16.962c-.598 2.05-1.302 4.63-1.583 5.896-.082-.235-.716-2.65-1.232-4.431l-5.221-18.439h-2.053l-4.787 17.009c-.516 1.735-1.384 4.63-1.666 5.896-.153-.75-.716-2.614-1.185-4.431l-4.88-18.474H.072L7.276 39.35h2.652l4.67-16.059a152.928 152.928 0 0 0 1.618-5.978 205.2 205.2 0 0 0 1.666 5.896l4.635 16.141h2.417Zm23.16-5.78c-.869 1.817-2.734 4.197-6.336 4.197-3.602 0-6.37-2.415-6.37-7.315v-.281h14.324v-.317c0-5.58-2.769-9.764-8.236-9.764-5.068 0-8.506 3.997-8.506 9.73 0 6.411 3.403 10.01 8.706 10.01 4.786 0 7.121-2.966 8.2-5.1l-1.783-1.148v-.012Zm-6.618-11.558c3.637 0 5.702 3.2 5.702 6.248h-11.72c.316-3.798 2.569-6.248 6.018-6.248ZM50.217.069H.002v2.766h50.215V.07ZM50.217 48.375H.002v2.766h50.215v-2.766Z" fill="#1F305E"/></svg>
